src/actions/24/item.svg

<svg xmlns="http://www.w3.org/2000/svg" viewBox="0 0 24 24">
  <defs id="defs3051">
    <style type="text/css" id="current-color-scheme">
      .ColorScheme-Text {
        color:#2e3440;
      }
      .ColorScheme-Highlight {
        color:#88c0d0;
      }
      </style>
  </defs><g transform="translate(1,1)">
 <path 
    style="fill:currentColor;fill-opacity:1;stroke:none" 
    d="M 4.5,3 C 3.671579,3 3.000008,3.67157 3,4.5 3.000008,5.32843 3.671579,6 4.5,6 5.328421,6 5.999992,5.32843 6,4.5 5.999992,3.67157 5.328421,3 4.5,3 Z M 7,4 7,5 8,5 8,4 Z m 2,0 0,1 10,0 0,-1 z m 0,2 0,1 3,0 0,-1 z M 4.5,15 C 3.671573,15 3,15.671572 3,16.5 3,17.328428 3.671573,18.000001 4.5,18 5.328427,18 6,17.328428 6,16.5 6,15.671572 5.328427,14.999999 4.5,15 Z m 2.5,1 0,1 1,0 0,-1 z m 2,0 0,1 10,0 0,-1 z m 0,2 0,1 7,0 0,-1 z"
    class="ColorScheme-Text"
    />  
 <path 
    style="fill:currentColor;fill-opacity:1;stroke:none" 
    d="M 4.5,9 C 3.671573,8.9999999 3,9.671572 3,10.5 3,11.328428 3.671573,12.000001 4.5,12 5.328427,12 6,11.328428 6,10.5 6,9.671572 5.328427,8.999999 4.5,9 Z m 2.5,1 0,1 1,0 0,-1 z m 2,0 0,1 10,0 0,-1 z m 0,2 0,1 4,0 0,-1 z"
    class="ColorScheme-Highlight"
    />  
</g></svg>

<svg viewBox="0 0 24 24" xmlns="http://www.w3.org/2000/svg">
 <defs>
  <style type="text/css">.ColorScheme-Text {
        color:#2e3440;
      }
      .ColorScheme-Highlight {
        color:#88c0d0;
      }</style>
 </defs>
 <g transform="translate(1,1)" fill="currentColor">
  <path class="ColorScheme-Text" d="m4.5 3c-0.82842 0-1.5 0.67157-1.5 1.5 8e-6 0.82843 0.67158 1.5 1.5 1.5s1.5-0.67157 1.5-1.5c-8e-6 -0.82843-0.67158-1.5-1.5-1.5zm2.5 1v1h1v-1zm2 0v1h10v-1zm0 2v1h3v-1zm-4.5 9c-0.82843 0-1.5 0.67157-1.5 1.5s0.67157 1.5 1.5 1.5c0.82843 0 1.5-0.67157 1.5-1.5s-0.67157-1.5-1.5-1.5zm2.5 1v1h1v-1zm2 0v1h10v-1zm0 2v1h7v-1z"/>
  <path class="ColorScheme-Highlight" d="m4.5 9c-0.82843-1e-7 -1.5 0.67157-1.5 1.5s0.67157 1.5 1.5 1.5c0.82843 0 1.5-0.67157 1.5-1.5s-0.67157-1.5-1.5-1.5zm2.5 1v1h1v-1zm2 0v1h10v-1zm0 2v1h4v-1z"/>
 </g>
</svg>
